Adwaita++-Dark/actions/22/y-zoom-in.svg

<svg height="22" viewBox="0 0 22 22" width="22" xmlns="http://www.w3.org/2000/svg">
  <path d="m11 2-3 3h2v3h2v-3h2zm-7.8125.0039062c-.6627 0-1.1875.5488501-1.1875 1.21875v3.78125h2v-3h3v-2zm-1.1875 5.9960938v6h6v-6zm10 1.0039062v2.9999998h-3v2h3.8125c.663 0 1.1875-.54875 1.1875-1.21875v-3.7812498z" fill="#e6ddff" transform="translate(3 3)"/>
</svg>

<svg xmlns="http://www.w3.org/2000/svg" width="22" height="22" viewBox="0 0 22 22">
 <defs>
  <style id="current-color-scheme" type="text/css">
   .ColorScheme-Text { color:#E6DDFF; } .ColorScheme-Highlight { color:#4285f4; }
  </style>
 </defs>
 <path style="fill:currentColor" class="ColorScheme-Text" d="M 11 2 L 8 5 L 10 5 L 10 8 L 12 8 L 12 5 L 14 5 L 11 2 z M 3.1875 2.0039062 C 2.5248 2.0039062 2 2.5527563 2 3.2226562 L 2 7.0039062 L 4 7.0039062 L 4 4.0039062 L 7 4.0039062 L 7 2.0039062 L 3.1875 2.0039062 z M 2 8 L 2 14 L 8 14 L 8 8 L 2 8 z M 12 9.0039062 L 12 12.003906 L 9 12.003906 L 9 14.003906 L 12.8125 14.003906 C 13.4755 14.003906 14 13.455156 14 12.785156 L 14 9.0039062 L 12 9.0039062 z" transform="translate(3 3)"/>
</svg>
